storage/app/icons/phosphoricons/duotone/truck-duotone.svg

<svg xmlns="http://www.w3.org/2000/svg" fill="currentColor" viewBox="0 0 256 256"><path d="M248 120v64a8 8 0 0 1-8 8h-24a24 24 0 0 0-48 0h-64a24 24 0 0 0-48 0H32a8 8 0 0 1-8-8v-40h160v-24Z" opacity=".2"/><path d="m255.42 117-14-35a15.93 15.93 0 0 0-14.84-10H192v-8a8 8 0 0 0-8-8H32a16 16 0 0 0-16 16v112a16 16 0 0 0 16 16h17a32 32 0 0 0 62 0h50a32 32 0 0 0 62 0h17a16 16 0 0 0 16-16v-64a7.9 7.9 0 0 0-.58-3M192 88h34.58l9.6 24H192ZM32 72h144v64H32Zm48 136a16 16 0 1 1 16-16 16 16 0 0 1-16 16m81-24h-50a32 32 0 0 0-62 0H32v-32h144v12.31A32.1 32.1 0 0 0 161 184m31 24a16 16 0 1 1 16-16 16 16 0 0 1-16 16m48-24h-17a32.06 32.06 0 0 0-31-24v-32h48Z"/></svg>

<svg xmlns="http://www.w3.org/2000/svg" viewBox="0 0 256 256" fill="currentColor"><path d="M248,120v64a8,8,0,0,1-8,8H216a24,24,0,0,0-48,0H104a24,24,0,0,0-48,0H32a8,8,0,0,1-8-8V144H184V120Z" opacity="0.2"/><path d="M255.42,117l-14-35A15.93,15.93,0,0,0,226.58,72H192V64a8,8,0,0,0-8-8H32A16,16,0,0,0,16,72V184a16,16,0,0,0,16,16H49a32,32,0,0,0,62,0h50a32,32,0,0,0,62,0h17a16,16,0,0,0,16-16V120A7.94,7.94,0,0,0,255.42,117ZM192,88h34.58l9.6,24H192ZM32,72H176v64H32ZM80,208a16,16,0,1,1,16-16A16,16,0,0,1,80,208Zm81-24H111a32,32,0,0,0-62,0H32V152H176v12.31A32.11,32.11,0,0,0,161,184Zm31,24a16,16,0,1,1,16-16A16,16,0,0,1,192,208Zm48-24H223a32.06,32.06,0,0,0-31-24V128h48Z"/></svg>
